X:1
T:Violin Caprice No. 20 in D Major
T:Violin Caprice No. 20 in D Major
T:Op. 1, No. 20
T:Niccolò Paganini
C:Niccolò Paganini
%%score ( 1 2 )
L:1/8
Q:1/4=90
M:6/8
K:D
V:1 treble nm="Violin" snm="Vln."
V:2 treble 
V:1
"^Allegretto""_dolce" (f3 gef | d3 Aag | f3 gef | d3 Afg | a3 ba^g | a3 fa=g | f2 e efe) | %7
 e3 a^g=g | f3 gef | d3 Aag | f3 gef | d3 Afg | a3 ba^g | a2 f f2 e | d3 cde | d6 | %16
!f! [af']3 ([fd'][ge'][^g^e']) | [af']3 ([fd'][ge'][^g^e']) | [af']3 ([bg'][af'][^g^e']) | %19
 [af']3 [fd']3 | [Fa]3 ([Gb][Fa][^E^g]) | [Fa]3 ([Df][Ce][B,d]) | ([Fd]3 [Gc])([Gd][Ge]) | %23
 [DFd][DFd][DFd] [DFd]2 z!fine! |: %24
[Q:1/4=110]"^Minore" (TB,/^A,/B,/).C/.D/.C/ (TB,/A,/B,/).C/.D/.C/ | %25
 (TB,/^A,/B,/).C/.D/.E/ (TF/^E/F/).^G/.^A/.F/ | (TB/^A/B/).c/.d/.e/ (Tf/^e/f/).d'/.c'/.b/ | %27
!8va(! (^a/c'/f'/).^a'/.c''/.f''/!8va)! [Ff][Ff][Ff] | %28
 (TB,/^A,/B,/).C/.D/.C/ (TB,/A,/B,/).C/.D/.C/ | (TB,/^A,/B,/).C/.D/.E/ (TF/^E/F/).^G/.^A/.F/ | %30
 (TB/^A/B/).c/.d/.e/ (Tf/^e/f/).e'/.c'/.^a/ | (Tb/^a/b/).d'/.f'/.b'/ [Bb][Bb][Bb] :: %32
 (T=a/^g/a/)f/^d/B/ A/F/^D/B,/F/A/ | (TG/F/G/)E/G/B/ [ee'][ee'][ee'] | %34
 (Tg/f/g/)e/c/A/ G/E/C/A,/E/G/ | (TF/E/F/)D/F/A/ [dd'][dd'][dd'] | %36
 (Tb/^a/b/).G/.g'/.b/ (T=a/^g/a/).F/.f'/.a/ | (Tg/f/g/).E/.e'/.g/ (Tf/e/f/).D/.d'/.f/ | %38
 (Te/^d/e/).G,/.g/.f/ (Te/d/e/).G,/.g/.f/ | (Tc/B/c/).A,/.C/.E/!p! [aa'][aa'][aa'] | %40
 (Td/c/d/)._B,/.D/.=F/!p! [^g^g'][gg'][gg'] | (Tc/B/c/).A,/.C/.E/!p! [aa'][aa'][aa'] | %42
 (Td/c/d/)._B,/.D/.=F/ [^g^g'][gg'][gg'] |!p! (Tc/B/c/).A/.E/.C/ (TA/^G/A/).E/.C/.A,/ | %44
 (Tc/B/c/).A/.E/.C/"_cresc." (TA/^G/A/).E/.C/.A,/ |!f! [_B,_B][B,B][B,B] [Dd][Dd][Dd] | %46
 [=F=f][Ff][Ff] [_B_b]!p!f/d/B/A/ | (^G/B/).d/.=f/(A/^c/) .e/.a/.e/.=c/.A/.=G/ | %48
 (^F/A/).d/.f/(G/B/) .d/.g/.d/.B/.G/.F/ | (^E/^G/).B/.d/(F/^A/) .c/.f/(E/A/).c/.f/ | %50
"_cresc." (D/F/).B/.d/(E/=G/) .B/.e/(^E/^G/).B/.d/ | (F/B/).d/.f/.b (F/^A/).c/.f/.^a | %52
 z3!f! (TB,/^A,/B,/).C/.D/.C/ | (TB,/^A,/B,/).C/.D/.E/ (TF/^E/F/).^G/.^A/.F/ | %54
 (TB/^A/B/).c/.d/.e/ (Tf/^e/f/).^g/.^a/.f/ | (Tb/^a/b/).c'/.d'/.e'/ [ff'][ff'][ff'] | %56
 [Bb] [B,B]2 z3!D.C.! :| %57
V:2
 D6 | D6 | D6 | D6 | D6 | D6 | G3 ^G3 | A3 z3 | D6 | D6 | D6 | D6 | D6 | D3 G3 | A3 A z z | D6 | %16
 D6 | D6 | D6 | D6 | D6 | D6 | A,6 | x6 |: x6 | x6 | x6 |!8va(! x3!8va)! x3 | x6 | x6 | x6 | x6 :: %32
 x6 | x6 | x6 | x6 | x6 | x6 | x6 | x6 | x6 | x6 | x6 | x6 | x6 | x6 | x6 | x6 | x6 | x6 | x6 | %51
 x6 | x6 | x6 | x6 | x6 | x6 :| %57

